X:94
T:King George IV
R:Strathspey
A:Cape Breton
S:Sandy MacIntyre
M:C
L:1/8
K:Am
A|: E<A,A,>B, C>B,A,<A| E<A,A,>C B,>A,G,>B, | E<A,A,>B, C>DE>C | B,<DG>E D/C/B,/A,/ G,B,:|
^c>eA>E c<e d/c/B/A/| ^c>eA>e d/c/B/A/ G<B| ^c>eA>ec>eA>^f| g>g a/g/^f/e/ d/c/B/A/ GB|
^c>eA>E c>e d/c/B/A/| ^c>eA>e d/c/B/A/ G<B| c<eBd A<BE<A | G>AG<E D/C/B,/A, G,B,||
